client/assets/icons/shiping_icon.svg

<svg width="41" height="41" viewBox="0 0 41 41" xmlns="http://www.w3.org/2000/svg">
            <path fill-rule="evenodd" clip-rule="evenodd" d="M0 23.1106C0 22.5325 0.470952 22.0638 1.0519 22.0638H26.9826C27.5636 22.0638 28.0345 22.5325 28.0345 23.1106V32.1426C28.0345 32.7207 27.5636 33.1894 26.9826 33.1894H12.7207C12.1398 33.1894 11.6688 32.7207 11.6688 32.1426C11.6688 31.5644 12.1398 31.0957 12.7207 31.0957H25.9307V24.1574H2.1038V29.562C2.1038 29.9692 2.26617 30.3593 2.55498 30.6463C2.84376 30.9337 3.23593 31.0957 3.64495 31.0957H4.94109C5.52204 31.0957 5.99341 31.5643 5.99341 32.1425C5.99341 32.7206 5.52246 33.1893 4.94151 33.1893H3.64495C2.67863 33.1893 1.75193 32.8078 1.06835 32.1277C0.383465 31.4471 0 30.5236 0 29.562V23.1106Z"></path>
            <path fill-rule="evenodd" clip-rule="evenodd" d="M1.06835 5.06221C1.75146 4.38267 2.67796 4 3.64495 4H24.3896C25.3565 4 26.2831 4.38267 26.9662 5.06221M1.06835 5.06221C0.383872 5.74274 0 6.66641 0 7.62734V23.1106C0 23.1107 0 23.1106 1.0519 23.1106L0 23.1106C0 23.6888 0.470952 24.1575 1.0519 24.1575H26.9826C27.5636 24.1575 28.0345 23.6888 28.0345 23.1106V7.62734C28.0345 6.6664 27.6506 5.74274 26.9662 5.06221M2.1038 22.0638H25.9307V7.62734C25.9307 7.22088 25.7684 6.83075 25.4795 6.54362C25.1903 6.25577 24.7979 6.09364 24.3896 6.09364H3.64495C3.2366 6.09364 2.84472 6.25528 2.55547 6.54313C2.26657 6.83026 2.1038 7.22088 2.1038 7.62734V22.0638ZM1.06835 5.06221C1.06844 5.06213 1.06827 5.06229 1.06835 5.06221Z"></path>
            <path fill-rule="evenodd" clip-rule="evenodd" d="M25.9309 12.7887C25.9309 12.2105 26.4018 11.7419 26.9828 11.7419H33.4654C37.6268 11.7419 41 15.0995 41 19.24V29.5622C41 30.5236 40.6167 31.4469 39.9321 32.1275C39.2485 32.8078 38.3216 33.1896 37.355 33.1896H34.762C34.1811 33.1896 33.7101 32.7209 33.7101 32.1427C33.7101 31.5646 34.1811 31.0959 34.762 31.0959H37.355C37.7641 31.0959 38.1558 30.9344 38.4445 30.6471C38.7333 30.36 38.8962 29.9695 38.8962 29.5622V19.24C38.8962 16.2557 36.4648 13.8355 33.4654 13.8355H28.0347L28.0345 32.1426C28.0345 32.7207 27.5636 33.1894 26.9826 33.1894C26.4017 33.1894 25.9309 32.721 25.9309 32.1428V12.7887Z"></path>
            <path fill-rule="evenodd" clip-rule="evenodd" d="M8.83112 29.3188C7.2639 29.3188 5.99341 30.5828 5.99341 32.1425C5.99341 33.7021 7.2639 34.9668 8.83112 34.9668C10.3983 34.9668 11.6688 33.7022 11.6688 32.1426C11.6688 30.5829 10.3983 29.3188 8.83112 29.3188ZM3.88961 32.1428C3.88961 29.4269 6.102 27.2252 8.83112 27.2252C11.5602 27.2252 13.7726 29.4269 13.7726 32.1428C13.7726 34.8588 11.5602 37.0605 8.83112 37.0605C6.102 37.0605 3.88961 34.8588 3.88961 32.1428Z"></path>
            <path fill-rule="evenodd" clip-rule="evenodd" d="M30.8724 29.3188C29.3052 29.3188 28.0345 30.5829 28.0345 32.1426C28.0345 33.7022 29.3052 34.9668 30.8724 34.9668C32.4396 34.9668 33.7101 33.7024 33.7101 32.1427C33.7101 30.5831 32.4396 29.3188 30.8724 29.3188ZM25.9309 32.1428C25.9309 29.4269 28.1433 27.2252 30.8724 27.2252C33.6015 27.2252 35.8139 29.4269 35.8139 32.1428C35.8139 34.8588 33.6015 37.0605 30.8724 37.0605C28.1433 37.0605 25.9309 34.8588 25.9309 32.1428Z"></path>
            <path fill-rule="evenodd" clip-rule="evenodd" d="M33.4654 11.7419C34.0464 11.7419 34.5171 12.2105 34.5171 12.7887V22.064H39.9478C40.5288 22.064 40.9997 22.5327 40.9997 23.1109C40.9997 23.689 40.5288 24.1577 39.9478 24.1577H33.4652C32.8842 24.1577 32.4133 23.689 32.4133 23.1109V12.7887C32.4133 12.2105 32.8845 11.7419 33.4654 11.7419Z"></path>
 </svg>

<!-- fill: none; -->
<!-- stroke: #fff; -->

<svg width="41" height="41" xmlns="http://www.w3.org/2000/svg"><path fill-rule="evenodd" clip-rule="evenodd" d="M0 23.11a1.05 1.05 0 0 1 1.052-1.046h25.93a1.05 1.05 0 0 1 1.053 1.047v9.032a1.05 1.05 0 0 1-1.052 1.046H12.72a1.05 1.05 0 0 1-1.052-1.046 1.05 1.05 0 0 1 1.052-1.047h13.21v-6.939H2.104v5.405c0 .407.162.797.451 1.084.289.288.68.45 1.09.45H4.94c.581 0 1.052.468 1.052 1.046a1.05 1.05 0 0 1-1.051 1.047H3.645a3.653 3.653 0 0 1-2.577-1.061A3.617 3.617 0 0 1 0 29.562v-6.451Z"/><path fill-rule="evenodd" clip-rule="evenodd" d="M1.068 5.062A3.654 3.654 0 0 1 3.645 4H24.39c.966 0 1.893.383 2.576 1.062m-25.898 0A3.618 3.618 0 0 0 0 7.627v15.484h1.052H0a1.05 1.05 0 0 0 1.052 1.046h25.93a1.05 1.05 0 0 0 1.053-1.046V7.627c0-.96-.384-1.884-1.069-2.565M2.104 22.064H25.93V7.627c0-.406-.163-.796-.451-1.083a1.546 1.546 0 0 0-1.09-.45H3.645c-.408 0-.8.161-1.09.45a1.53 1.53 0 0 0-.451 1.083v14.437ZM1.068 5.062Z"/><path fill-rule="evenodd" clip-rule="evenodd" d="M25.93 12.789c0-.579.472-1.047 1.053-1.047h6.482c4.162 0 7.535 3.357 7.535 7.498v10.322c0 .962-.383 1.885-1.068 2.565a3.653 3.653 0 0 1-2.577 1.063h-2.593a1.05 1.05 0 0 1-1.052-1.047 1.05 1.05 0 0 1 1.052-1.047h2.593c.41 0 .8-.162 1.09-.449a1.53 1.53 0 0 0 .451-1.085V19.24c0-2.984-2.431-5.404-5.43-5.404h-5.431v18.307a1.05 1.05 0 0 1-1.052 1.046c-.581 0-1.052-.468-1.052-1.046V12.789ZM8.831 29.319a2.83 2.83 0 0 0-2.838 2.823c0 1.56 1.27 2.825 2.838 2.825a2.831 2.831 0 0 0 2.838-2.824 2.83 2.83 0 0 0-2.838-2.824ZM3.89 32.143c0-2.716 2.212-4.918 4.941-4.918 2.73 0 4.942 2.202 4.942 4.918S11.56 37.06 8.83 37.06 3.89 34.86 3.89 32.143Z"/><path fill-rule="evenodd" clip-rule="evenodd" d="M30.872 29.319a2.83 2.83 0 0 0-2.837 2.824c0 1.56 1.27 2.824 2.837 2.824a2.83 2.83 0 0 0 2.838-2.824 2.83 2.83 0 0 0-2.838-2.824Zm-4.941 2.824c0-2.716 2.212-4.918 4.941-4.918 2.73 0 4.942 2.202 4.942 4.918s-2.212 4.917-4.942 4.917c-2.729 0-4.941-2.201-4.941-4.917ZM33.465 11.742a1.05 1.05 0 0 1 1.052 1.047v9.275h5.43A1.05 1.05 0 0 1 41 23.111a1.05 1.05 0 0 1-1.052 1.047h-6.483a1.05 1.05 0 0 1-1.052-1.047V12.789a1.05 1.05 0 0 1 1.052-1.047Z"/></svg>
